X: 39
M: 2/4
L: 1/8
K: Bb
    B2 B c | d2 d d | c B c d | B3 c |
    c2 A c | c2 d c | B B G G | F3 F |
    B2 B c | d2 d d | c B c d | B3 z |]


